X:1
T:Title
%%score { ( 1 4 ) | ( 2 3 ) }
L:1/8
M:3/4
K:C
V:1 treble nm="Grand Piano"
V:4 treble 
V:2 bass 
V:3 bass 
V:1
 z2 z2[Q:1/4=124] [EG]2 | [EG]3 [FA] [EG]2 | [G,CE]2 [G,DF]2 [CEG]2 | [CGc]2 [CGc]2 [CGB]2 | %4
 [CFA]4 [CFA]2 | [CEG]3 [CFA] [CEG]2 | [G,CE]2 [G,DF]2 [G,EG]2 | [G,EG]2 [G,DF]2 [G,CE]2 | %8
 [G,B,D]4 [B,G]2 | G3 A G2 | E2 [DF]2 [EG]2 | [Gc]2 [Gc]2 d2 | e4 [Gc]2 | d3 c A2 | %14
 [EG]2 [Gc]2 [Ge]2 | [Fd]6 | [CEc]6 |[M:1/4] G2 |[M:3/4] [Ec]4 [Ec]2 | d2 c2 A2 | [EG]6 | E4 G2 | %22
 c4 c2 | [^Fe]2 [Fd]2 [Fc]2 | e6 |[M:2/4] d4 |[M:1/4] G2 |[M:3/4] [EG]3 [FA] [EG]2 | [Ec]4 [Ec]2 | %29
 [Fc]4 [Ad]2 |[M:4/4] [^Ge]6 d2 |[M:3/4] c4 c2 | G2 c2 e2 | d6 |[M:2/4] [Ec]4 |] %35
V:2
 z2 z2 [C,C]2 | [C,C]3 [C,C] [C,C]2 | C,2 C,2 C,2 | E,2 E,2 E,2 | F,4 F,2 | C,3 C, C,2 | %6
 C,2 C,2 C,2 | B,,2 B,,2 C,2 | G,,4 [G,,F,]2 | [C,E,C]3 [C,F,C] [C,E,C]2 | %10
 [C,G,C]2 [C,G,]2 [C,C]2 | [E,C]2 [E,C]2[K:treble] [G,B,G]2 | [CG]4[K:bass] [E,C]2 | %13
 [F,A,F]4 [F,CF]2 | [C,C]2 [E,C]2 [C,C]2 | C4 z2 | C,6 |[M:1/4] G,2 |[M:3/4] [C,G,]4 [C,^G,]2 | %19
 [F,A,F]2 [F,A,F]2 [F,CF]2 | [C,C]6 | [C,G,C]4 [CE]2 | [A,CE]4 [A,CE]2 | [D,C]2 [D,C]2 [D,D]2 | %24
 [G,CG]6 |[M:2/4] [G,B,G]4 |[M:1/4] [G,B,F]2 |[M:3/4][K:bass] [C,C]4 [C,C]2 | [C,G,]4 [C,^G,]2 | %29
 [F,A,]4 [F,B,]2 |[M:4/4] [E,B,]6[K:treble] [F,A,F]2 |[M:3/4] [G,E]4 [G,E]2 | %32
 [G,CE]2 [G,CE]2 [G,CG]2 | [G,F]6 |[M:2/4][K:bass] [C,C]4 |] %35
V:3
 x6 | x6 | x6 | x6 | x6 | x6 | x6 | x6 | x6 | x6 | x6 | x4[K:treble] x2 | x4[K:bass] x2 | x6 | x6 | %15
 G,4- [G,B,]2 | x6 |[M:1/4] x2 |[M:3/4] x6 | x6 | x6 | x6 | x6 | x6 | x6 |[M:2/4] x4 |[M:1/4] x2 | %27
[M:3/4][K:bass] x6 | x6 | x6 |[M:4/4] x6[K:treble] x2 |[M:3/4] x6 | x6 | C4 z2 | %34
[M:2/4][K:bass] x4 |] %35
V:4
 x6 | x6 | x6 | x6 | x6 | x6 | x6 | x6 | x6 | x6 | x6 | x6 | x6 | x6 | x6 | x6 | x6 |[M:1/4] x2 | %18
[M:3/4] x6 | x6 | x6 | x6 | x6 | x6 | x6 |[M:2/4] x4 |[M:1/4] x2 |[M:3/4] x6 | x6 | x6 | %30
[M:4/4] x8 |[M:3/4] x6 | x6 | z2 z2 B,2 |[M:2/4] x4 |] %35

